X:399
T: Bonniest Lass in a' the World, The
R: air
Z: 2005 John Chambers <jc:trillian.mit.edu>
B: BSFC XIII-1
M: C
L: 1/8
F:http://trillian.mit.edu/~jc/music/abc/air/Bonniest_Lass_in_a_the_World_G.abc	 2008-11-26 02:37:35 UT
K: G
G>A | "G"B2 D2 "Em"E2 G2 | "C"cB A<G "D"E2 DE | "G"G2 g2 de gd | "C"e4 "D"d2 ef | "G"gf e<d "Em"ef gB |
"C"cB A<G "D"E2 DE | "G"G2 g2 "C"d>e c>d | "D"B3 A "G"G2 :: (3def | "G"gf ed "Em"ef ge | "Am"ag fe "D"fg af |
"G"gf ga "Em"bg ab | "C"e4 "D"d2 ga | "G"ba ge "Em"de/f/ gB | "C"cB A<G "D"E2 DE | "G"G2 g2 "C"d>e c>d | "D"B3 A "G"G2 :|
